X:58
T:Marie,La. CJF.058
T:La Marie. CJF.058
R:misc
S:C.J.Fox MS, 1829/33, Beverley,E.Yorks.
B:Kidson Coll.Mitchell Lib.M1805
O:England
A:East Yorkshire
Z:vmp.P J Headford 2000 & 2008
M:2/4
L:1/8
Q:1/4=100
K:G
(G/B/)|.d.d.d f/g/|d(^a/b/) g(^c’/d’/)|\
bg (a/g/f/g/)|.a.a.a (G/B/)|\
.d.d.d (f/g/)|d(^a/b/) g(^c’/d’/)|\
b>g (f/g/a/f/)|gggh||!
(d/e/)|.f.f.g.g|.a.b.a (f/g/)|\
.a.a.b.b|c’/b/a/g/ f/e/d/c/|\
BBcc|ddea|g>(b a/g/a/” D Capo”b/)|.g.g.g|]

